Adwaita++/actions/16/cm_markplus.svg

<svg height="16" viewBox="0 0 16 16" width="16" xmlns="http://www.w3.org/2000/svg">
  <path d="m2 2v12h4 1 2 2 3v-12zm2 2h8v2h-8zm3 3h2v2h2v2h-2v2h-2v-2h-2v-2h2z" fill="#474747"/>
</svg>

<svg xmlns="http://www.w3.org/2000/svg" width="16" height="16" version="1.1" viewBox="0 0 16 16">
 <defs>
  <style id="current-color-scheme" type="text/css">
   .ColorScheme-Text { color:#474747; } .ColorScheme-Highlight { color:#4285f4; }
  </style>
 </defs>
 <path style="fill:currentColor" class="ColorScheme-Text" d="m 2,2 v 12 h 4 1 2 2 3 V 2 Z m 2,2 h 8 V 6 H 4 Z m 3,3 h 2 v 2 h 2 v 2 H 9 v 2 H 7 V 11 H 5 V 9 h 2 z"/>
</svg>
